packages/core/src/svgs/xem.svg

<svg width="24" height="24" viewBox="0 0 24 24" fill="none" xmlns="http://www.w3.org/2000/svg">
<g clip-path="url(#clip0_31_20901)">
<path d="M0 0H24V24H0V0Z" fill="#F0F3FA"/>
<path d="M16.1212 16.3328C16.1279 15.638 15.9555 14.9531 15.6206 14.3442C14.8192 12.8678 12.8743 12.4221 12.5623 10.6139C12.4172 9.83405 12.5766 9.02819 13.0078 8.3623C13.439 7.69642 14.109 7.22121 14.88 7.03452C16.2643 6.6968 17.6863 7.46438 18.8572 8.1248C18.8452 11.0974 17.8098 13.9011 16.1212 16.3328Z" fill="#32A4F2"/>
<path d="M12.2854 7.61767C12.6498 7.1191 13.1217 6.70896 13.6663 6.41767C10.7044 6.13053 7.74468 6.6491 5.14282 8.13196C5.14625 9.75282 5.27225 11.8378 6.81211 12.7382C8.54182 13.7497 10.8304 12.8068 11.3691 10.9022C11.694 9.72024 11.4917 8.70367 12.2854 7.61767Z" fill="#FFAA12"/>
<path d="M10.4435 13.6244C9.17917 14.3504 7.56774 14.3547 6.30859 13.6175C7.47088 16.2682 9.48431 18.5881 12 20.0358C13.7486 19.0038 15.7012 17.7811 14.9692 15.4278C14.4056 13.5262 12.1492 12.6502 10.4435 13.6244Z" fill="#2CBAAD"/>
</g>
<defs>
<clipPath id="clip0_31_20901">
<rect width="24" height="24" fill="white"/>
</clipPath>
</defs>
</svg>

<svg xmlns="http://www.w3.org/2000/svg" width="24" height="24" fill="none" viewBox="0 0 24 24"><g clip-path="url(#a)"><path fill="#F0F3FA" d="M0 0h24v24H0z"/><path fill="#32A4F2" d="M16.121 16.333a4.05 4.05 0 0 0-.5-1.989c-.802-1.476-2.747-1.922-3.059-3.73a3.1 3.1 0 0 1 2.318-3.58c1.384-.337 2.806.43 3.977 1.09-.012 2.973-1.047 5.777-2.736 8.209"/><path fill="#FFAA12" d="M12.285 7.618a4.1 4.1 0 0 1 1.381-1.2c-2.962-.287-5.921.231-8.523 1.714.003 1.62.13 3.706 1.67 4.606 1.729 1.012 4.017.069 4.556-1.836.325-1.182.123-2.198.916-3.284"/><path fill="#2CBAAD" d="M10.444 13.624c-1.265.726-2.876.73-4.135-.007C7.47 16.269 9.484 18.589 12 20.037c1.749-1.032 3.701-2.255 2.97-4.608-.564-1.902-2.82-2.778-4.526-1.804"/></g><defs><clipPath id="a"><path fill="#fff" d="M0 0h24v24H0z"/></clipPath></defs></svg>
